!!!COM: Charles Ives
!!!OTL: [T270_Ive-w45p21s1-2]
**kern	**kern	**dynam	**kern	**text	**dynam
!!pagebreak:original
*clefF4	*clefG2	*	*clefG2	*	*
*k[]	*k[]	*	*k[]	*	*
*C:	*C:	*	*C:	*	*
*M4/4	*M4/4	*	*M4/4	*	*
=1	=1	=1	=1	=1	=1
*^	*^	*	*	*	*
!	!	!LO:TX:b:i:t=slowly and quietly	!	!	!LO:TX:t=[quarter]=51	!	!
2F	1CCC#X 1GGG#X 1CC#X 1GG#X	(8aL	4a	pppp mp	1r	.	.
.	.	8gg 8bb	.	.	.	.	.
*	*	*v	*v	*	*	*	*
.	.	8ff 8aa)	.	.	.	.
*	*	*^	*	*	*	*
.	.	(8gJ	4g	.	.	.	.
2D#X	.	8ffL 8aa	.	.	.	.	.
*	*	*v	*v	*	*	*	*
.	.	8cc 8gg)	.	.	.	.
*	*	*^	*	*	*	*
.	.	(8f	4f	.	.	.	.
.	.	8ffJ 8aa	.	.	.	.	.
*	*	*v	*v	*	*	*	*
=2	=2	=2	=2	=2	=2	=2
2F	1CC#X 1GG#X	8dddL)	.	1r	.	.
*	*	*^	*	*	*	*
.	.	(8g	4g	.	.	.	.
.	.	8ff 8aa	.	.	.	.	.
*	*	*v	*v	*	*	*	*
.	.	8eeJ 8gg)	.	.	.	.
*	*	*^	*	*	*	*
2D#X	.	(8aL	4a	.	.	.	.
.	.	8gg 8bb	.	.	.	.	.
*	*	*v	*v	*	*	*	*
.	.	8ff 8aa)	.	.	.	.
.	.	8bJ	.	.	.	.
*v	*v	*	*	*	*	*
=3	=3	=3	=3	=3	=3
*	*^	*	*	*	*
.	(10fff#XL	5c#X 5cc#X 5gg#X 5ddd	.	1r	.	.
*^	*	*	*	*	*	*
2G#X	1CCC#X: 1GGG#X: 1CC#X: 1GG#X:	.	.	.	.	.	.
.	.	10ccc#X 10eee	.	.	.	.	.
.	.	10a	5a	.	.	.	.
.	.	10ccc# 10eee	.	.	.	.	.
*	*	*v	*v	*	*	*	*
.	.	10bb-XJ 10ddd)	.	.	.	.
.	.	(8gL	.	.	.	.
*	*	*^	*	*	*	*
2A#X	.	.	4g	.	.	.	.
.	.	8ee-X 8ggn	.	.	.	.	.
.	.	8ff 8aa)	.	.	.	.	.
*	*	*v	*v	*	*	*	*
.	.	(8fJ	.	.	.	.
=4	=4	=4	=4	=4	=4	=4
.	.	.	.	1r	.	.
*	*	*^	*	*	*	*
4G#X	1CC#X 1GG#X	8gL	4g	.	.	.	.
.	.	8cc-X 8ee	.	.	.	.	.
*	*	*v	*v	*	*	*	*
4E#X	.	8ff 8aa)	.	.	.	.
.	.	(8g#XJ	.	.	.	.
*	*	*^	*	*	*	*
2D#X	.	8aL	4a	.	.	.	.
.	.	8ee-X 8gg	.	.	.	.	.
*	*	*v	*v	*	*	*	*
.	.	8cc#X 8ff#X)	.	.	.	.
.	.	(8gnJ	.	.	.	.
!!linebreak:original
=5	=5	=5	=5	=5	=5	=5
.	.	.	.	1r	.	.
!!linebreak:original
2D#X	1CC#X 1GG#X	8ee-XL 8gg	.	.	.	.
.	.	8ff 8aa)	.	.	.	.
*	*	*^	*	*	*	*
.	.	(8g#X	4g#	.	.	.	.
.	.	8aJ	.	.	.	.	.
*	*	*v	*v	*	*	*	*
[2E#X	.	8ee-XL 8gg	.	.	.	.
.	.	8ff 8aa#X)	.	.	.	.
*	*	*^	*	*	*	*
.	.	(8gn	4g	.	.	.	.
.	.	8ffJ 8aan	.	.	.	.	.
=6	=6	=6	=6	=6	=6	=6	=6
.	.	.	.	.	4r	.	.
*	*	*v	*v	*	*	*	*
2E#]	1CC#X 1GG#X	8ccL 8gg)	.	.	.	.
*	*	*^	*	*	*	*
.	.	(8f	4f	.	.	.	.
.	.	.	.	.	4r	.	.
.	.	8ff 8aa	.	.	.	.	.
*	*	*v	*v	*	*	*	*
.	.	8dddJ)	.	.	.	.
.	.	.	.	4r	.	.
*	*	*^	*	*	*	*
2E#X	.	(8gL	4g	.	.	.	.
.	.	8ff 8aa	.	.	.	.	.
.	.	.	.	.	8r	.	.
*	*	*v	*v	*	*	*	*
.	.	8ee 8gg)	.	.	.	.
.	.	.	.	8f	Con-	mp
.	.	(8aJ	.	.	.	.
=7	=7	=7	=7	=7	=7	=7
.	.	.	.	8f	-ten-	.
2E#X	2CC#X 2GG#X	8ggL 8bb	.	.	.	.
.	.	.	.	8f	-ted	.
.	.	8ff 8aa)	.	.	.	.
.	.	.	.	4f	ri-	.
*	*	*^	*	*	*	*
.	.	(8b	4b	.	.	.	.
.	.	8aJ	.	.	.	.	.
.	.	.	.	.	[2d-X	-ver!	.
*	*	*v	*v	*	*	*	*
2A#X	2EE#X 2C#X	8aa-XL 8ccc	.	.	.	.
.	.	8gg 8bb)	.	.	.	.
.	.	(8cc#X	.	.	.	.
.	.	8bJ	.	.	.	.
=8	=8	=8	=8	=8	=8	=8
.	.	.	.	4d-]	.	.
2E#X	1CC#X 1GG#X	8ggL 8bb	.	.	.	.
.	.	8ff 8aa)	.	.	.	.
.	.	.	.	4r	.	.
*	*	*^	*	*	*	*
.	.	(8b	4b	.	.	.	.
.	.	8aa-XJ 8ccc	.	.	.	.	.
.	.	.	.	.	4r	.	.
*	*	*v	*v	*	*	*	*
2D#X	.	8ggL 8bb)	.	.	.	.
.	.	(8a	.	.	.	.
.	.	.	.	8e-X	in	.
*	*	*^	*	*	*	*
.	.	8b	4b	.	.	.	.
.	.	.	.	.	8e-	thy	.
.	.	8ggJ 8bb)	.	.	.	.	.
*v	*v	*	*	*	*	*	*
*	*v	*v	*	*	*	*
=	=	=	=	=	=
*-	*-	*-	*-	*-	*-
!!!system-decoration: s1[({(s2,s3)})]
